packages/web/src/assets/images/icons/file.svg

<svg fill="none" height="32" viewBox="0 0 24 32" width="24" xmlns="http://www.w3.org/2000/svg"><path clip-rule="evenodd" d="m23.4766 9.22656c0 .01563-.0079.03125-.0079.04688v21.30466c0 .5781-.4687 1.0469-1.0468 1.0469h-20.84378c-.57812 0-1.054682-.4688-1.054682-1.0469v-29.15622c0-.57813.46875-1.04688 1.054682-1.04688h13.02348c.0234 0 .0468.007813.0625.015625.0234 0 .0468.007813.0703.015625.0859.023438.1718.0625.2344.125l8.2812 8.27344c.0156.00781.0234.03125.0391.04687.0156.01563.0312.03125.0468.05469.0782.08594.1407.19531.1407.32031zm-21.90629-7.85156v29.1953l20.85159.0078v-20.85935h-7.8125c-.2891 0-.5313-.20313-.5313-.49219v-7.85156zm13.55469.78125v6.55469h6.5625z" fill="#fff" fill-rule="evenodd"/></svg>

<svg width="24" height="32" viewBox="0 0 24 32" fill="none" xmlns="http://www.w3.org/2000/svg">
    <path fill-rule="evenodd" clip-rule="evenodd" d="M23.4766 9.22656C23.4766 9.24219 23.4687 9.25781 23.4687 9.27344V30.5781C23.4687 31.1562 23 31.625 22.4219 31.625H1.57812C1 31.625 0.523438 31.1562 0.523438 30.5781V1.42188C0.523438 0.84375 0.992188 0.375 1.57812 0.375H14.6016C14.625 0.375 14.6484 0.382813 14.6641 0.390625C14.6875 0.390625 14.7109 0.398438 14.7344 0.40625C14.8203 0.429688 14.9062 0.46875 14.9688 0.53125L23.25 8.80469C23.2656 8.8125 23.2734 8.83594 23.2891 8.85156C23.3047 8.86719 23.3203 8.88281 23.3359 8.90625C23.4141 8.99219 23.4766 9.10156 23.4766 9.22656ZM1.57031 1.375V30.5703L22.4219 30.5781V9.71875H14.6094C14.3203 9.71875 14.0781 9.51562 14.0781 9.22656V1.375H1.57031ZM15.125 2.15625V8.71094H21.6875L15.125 2.15625Z" fill="white"/>
</svg>
